X: 122
T: REEL: Trip to Birmingham
C: C: Josie McDermott; S: Various
C: Set Leaders: Mars, Tania, Anton
Z: [Unedited]; slainte at The Session
N: https://thesession.org/members/26966/sets/94276
R: Reel
M: 4/4
L: 1/8
Q: 1/2=100
K: Gmaj
|:DGGF G2Bd|~e3d edBA|~G3B dGBG|ABAG EFGE|
DGGF G2Bd|~e3d efga|bg~g2 ageg|dBAB G3:||
e|dggf g2 ga|bg~g2 edBA|~G3B dGBG|ABAG EFG2|
dggf g2 ga|bg~g2 edBA|~G3B dGBG|AGFA G3e|
dggf g2 ga|bg~g2 edBA|~G3B dGBG|ABAG EFG2|
dg~g2 ag~g2|bg~g2 edBA|~G3B dGBG|AGFA G3||

